X:29
T:Amazing grace
M:3/4
L:1/8
%%staves {(1 2) 3}
K:F
V:1
CF|F4(3A3/G/F|A4AG|F4D2|C4CF|F4(3A3/G/F|A4GA|c6-|c4
V:2
CA,|A,4(3C3/B,/A,|C4CB,|D4B,2|A,4A,A,|A,4(3C3/B,/A,|C4B,A,|E6-|E4
V:3
z2|F,,6-|F,,6|B,,6|F,,6-|F,,6-|F,,6|C,6|C,4
V:1
Ac|c4(3A3/G/F|A4AG|F4D2|C4CF|F4(3A3/G/F|A4G2|F6||
V:2
CA,|A,4(3C3/B,/A,|C4CB,|D4B,2|A,4A,A,|A,4(3C3/B,/A,|C4B,2|A,6||
V:3
C,2|F,,6-|F,,6|B,,6|F,,6-|F,,6|C,,6|F,,6||
